X:959
T:Hugh Gillespie's No.2
S:CD, Zoe Conway, The Horse's Tail, 2007
Z:Nigel Gatherer
M:3/4
L:1/8
K:A
E>A | c2 c>BA>c | e2 e2 B>c | d>cd>fe>d |c>e a2
E>A | c2 c>BA>c | e2 e2 B>c | d>cd>BGB |1 B>AA>F :|2 B>AA ||
ga>g | f2 d>fd>f | f>ec>ec>e | d2 B>dB>d | c>e a2
a>g | (3faf d>fd>f | f>ec>ec>e | d>cd>BG>B | B>AA :|
<end>
<start>
